X: 27620
T: Moon And The Seven Stars, The
R: jig
M: 6/8
K: Dmajor
c|:d2A AGF|GAB A2A|Bcd efg|fed cBA|
d2A AGF|GAB A2A|Bcd efg|Adc d3:|
|:eAA A2f|efg f3|efg fed|cdB A3|
BGB AFA|BGB AFA|Bcd efg|Adc d3:|

